X:1
T: Netherbow
C:
R:Strathspey
Q: 128
K:Em
M:4/4
L:1/16
|:E3F E2D2 E4 d2B2|A3B A2F2 D3A F2D2|E3F E4 D2E2 d3B|A2F2 D3F FE3 E4|
E3F E2D2 E4 d2B2|A3B A2F2 D2E2 F2A2|B2^c2 dB3 e4 d3B|AF3 d3F FE3 E4|
Be3 e3f e4 d3B|A3B d3e d3B AF3|Ee3 e3f e4 d3B|AF3 d2F2 F2E2 E4|
Be3 e3f e4 d3B|A3B d3e f3e d3A|B3A B2^c2 d2f2 e2a2|d3A Bd3 FE3 E4:|
